@extra/phlat-icons/symbolic-22/xfce4-fsguard-plugin-warning.svg

<?xml version="1.0" encoding="UTF-8" standalone="no"?>
<svg
   xmlns:dc="http://purl.org/dc/elements/1.1/"
   xmlns:cc="http://creativecommons.org/ns#"
   xmlns:rdf="http://www.w3.org/1999/02/22-rdf-syntax-ns#"
   xmlns:svg="http://www.w3.org/2000/svg"
   xmlns="http://www.w3.org/2000/svg"
   xmlns:sodipodi="http://sodipodi.sourceforge.net/DTD/sodipodi-0.dtd"
   xmlns:inkscape="http://www.inkscape.org/namespaces/inkscape"
   viewBox="-2 -2 22 22"
   version="1.1"
   id="svg8"
   sodipodi:docname="xfce4-fsguard-plugin-warning.svg"
   inkscape:version="0.92.1 r15371">
  <metadata
     id="metadata14">
    <rdf:RDF>
      <cc:Work
         rdf:about="">
        <dc:format>image/svg+xml</dc:format>
        <dc:type
           rdf:resource="http://purl.org/dc/dcmitype/StillImage" />
        <dc:title></dc:title>
      </cc:Work>
    </rdf:RDF>
  </metadata>
  <defs
     id="defs12" />
  <sodipodi:namedview
     pagecolor="#ffffff"
     bordercolor="#666666"
     borderopacity="1"
     objecttolerance="10"
     gridtolerance="10"
     guidetolerance="10"
     inkscape:pageopacity="0"
     inkscape:pageshadow="2"
     inkscape:window-width="1472"
     inkscape:window-height="710"
     id="namedview10"
     showgrid="true"
     inkscape:zoom="14.75"
     inkscape:cx="8.1563729"
     inkscape:cy="8"
     inkscape:window-x="720"
     inkscape:window-y="58"
     inkscape:window-maximized="0"
     inkscape:current-layer="svg8">
    <inkscape:grid
       type="xygrid"
       id="grid83" />
  </sodipodi:namedview>
  <path
     style="line-height:normal;-inkscape-font-specification:'Bitstream Vera Sans';text-indent:0;text-align:start;text-decoration-line:none;text-transform:none;marker:none;fill:#f1f2f2"
     d="M 3.1875 0 A 2.197 2.197 0 0 0 1 2.1875 L 1 13.8125 C 1 15.0125 1.9855 16 3.1875 16 L 8.3339844 16 C 7.5952254 16 7 15.40452 7 14.666016 L 7 14 L 3.1875 14 C 3.0625 14 3 13.9435 3 13.8125 L 3 2.1875 C 3 2.0555 3.0635 2 3.1875 2 L 12.8125 2 C 12.9365 2 13 2.0565 13 2.1875 L 13 7 L 14.666016 7 C 14.782157 7 14.892729 7.0192372 15 7.046875 L 15 2.1875 C 15 0.9875 14.0145 -2.9605947e-16 12.8125 0 L 3.1875 0 z "
     id="path2" />
  <path
     style="marker:none;fill:#f1f2f2"
     d="M 8.125 2.9980469 A 3.985 3.985 0 0 0 7.84375 3 C 7.57775 3.01 7.29925 3.059 7.03125 3.125 A 3.99 3.99 0 0 0 4.125 7.96875 A 3.985 3.985 0 0 0 7 10.865234 L 7 8.3339844 C 7 8.0702329 7.0953751 7.8373591 7.2265625 7.6308594 A 1 1 0 1 1 9 7 L 11.982422 7 C 11.98035 6.6757738 11.954098 6.3504814 11.875 6.03125 A 3.985 3.985 0 0 0 8.125 2.9980469 z "
     id="path4" />
  <path
     inkscape:connector-curvature="0"
     style="color:#f1f2f2;overflow:visible;fill:#ff6600;marker:none"
     class="warning"
     d="M 8.875,8.0620006 A 0.86,0.86 0 0 0 8,8.9280006 V 15.123 a 0.86,0.86 0 0 0 0.875,0.868 h 6.25 A 0.86,0.86 0 0 0 16,15.123 V 8.9290006 a 0.86,0.86 0 0 0 -0.875,-0.868 z m 2.125,0.99 h 2 V 13.018 H 11 Z M 11,14.009 h 2 V 15 h -2 z"
     overflow="visible"
     id="path65" />
</svg>

<svg xmlns="http://www.w3.org/2000/svg" viewBox="-2 -2 22 22">
    <path style="line-height:normal;-inkscape-font-specification:'Bitstream Vera Sans';text-indent:0;text-align:start;text-decoration-line:none;text-transform:none;marker:none" d="M3.188 0A2.197 2.197 0 0 0 1 2.188v11.624C1 15.012 1.986 16 3.188 16h5.146A1.332 1.332 0 0 1 7 14.666V14H3.187C3.063 14 3 13.944 3 13.812V2.188C3 2.054 3.063 2 3.188 2h9.624c.125 0 .188.057.188.188V7h1.666c.116 0 .227.02.334.047v-4.86A2.197 2.197 0 0 0 12.812 0H3.188z" fill="#f1f2f2"/>
    <path style="marker:none" d="M8.125 2.998A3.985 3.985 0 0 0 7.844 3c-.266.01-.545.059-.813.125a3.99 3.99 0 0 0-2.906 4.844A3.985 3.985 0 0 0 7 10.865V8.334c0-.264.095-.497.227-.703A1 1 0 1 1 9 7h2.982a4.121 4.121 0 0 0-.107-.969 3.985 3.985 0 0 0-3.75-3.033z" fill="#f1f2f2"/>
    <path style="marker:none" class="warning" d="M8.875 8.062A.86.86 0 0 0 8 8.928v6.195a.86.86 0 0 0 .875.868h6.25a.86.86 0 0 0 .875-.868V8.929a.86.86 0 0 0-.875-.868zm2.125.99h2v3.966h-2zm0 4.957h2V15h-2z" overflow="visible" color="#f1f2f2" fill="#f60"/>
</svg>
